assets/images/subscriptions-onboarding-modal.svg

<svg width="501" height="160" viewBox="0 0 501 160" fill="none" xmlns="http://www.w3.org/2000/svg">
<g clip-path="url(#clip0_521_72607)">
<rect width="501" height="160" fill="#BBE0FA"/>
<path opacity="0.5" d="M84.3461 106.432C88.8664 98.2729 97.3893 92.5236 105.919 87.7697L107.358 86.9778C116.298 82.0974 125.593 77.8807 135.033 73.9658C140.082 71.8666 145.159 69.845 150.243 67.8436L154.229 66.2792C159.404 64.2475 164.59 62.2151 169.787 60.182C174.875 58.192 179.966 56.2116 185.061 54.2408C191.588 51.7204 198.125 49.2289 204.672 46.7661C209.784 44.8451 214.907 42.9509 220.039 41.0836C226.613 38.693 233.206 36.3566 239.815 34.0746C244.982 32.2942 250.16 30.5553 255.348 28.8579C262.003 26.687 268.685 24.6008 275.392 22.5993C279.944 21.2372 284.509 19.9231 289.088 18.6569L291.176 18.084C310.857 12.7163 331.298 8.39036 351.029 10.7243L351.562 10.7901C351.826 10.8221 352.091 10.8541 352.358 10.8918C355.993 11.3567 359.597 12.1408 363.13 13.2358C369.426 15.2223 375.154 18.3449 379.256 23.0098C385.687 30.3277 387.314 40.5519 386.416 50.27C385.519 59.9881 382.392 69.5878 380.165 79.2324C379.513 82.0576 378.967 84.942 378.54 87.8521C375.892 106.092 378.197 125.285 391.985 137.033C393.782 138.518 395.645 139.908 397.57 141.199C400.671 143.333 408.001 146.999 412.501 152.499C417.959 159.17 417.891 163.154 419.501 171.499C421.629 182.597 419.396 194.766 412.433 204.658C405.212 214.927 391.382 219.471 378.522 221.291C358.536 224.146 338.507 222.343 318.592 221.377C298.678 220.411 278.156 220.352 258.817 226.457C254.664 227.77 250.615 229.393 246.701 231.313C241.475 233.847 236.538 236.96 231.974 240.601C225.399 245.909 219.973 252.3 216.865 259.602C210.185 275.223 190.077 283.397 172.82 281.558C156.353 279.803 142.157 268.722 137.725 254.177C132.808 237.98 139.367 220.883 144.867 203.784C145.535 201.711 146.184 199.639 146.797 197.567C147.139 196.41 147.467 195.255 147.783 194.104C148.331 192.074 148.839 190.049 149.277 188.026C151.506 177.661 151.585 166.138 144.697 158.264C140.836 153.856 135.565 151.323 129.676 149.57C116.482 145.647 100.202 145.646 89.8816 137.246C80.9884 130.006 78.6145 116.798 84.3461 106.432Z" fill="white" fill-opacity="0.65"/>
<path d="M343.347 19.1094H153.084C151.427 19.1094 150.084 20.4525 150.084 22.1094V141.805C150.084 143.462 151.427 144.805 153.084 144.805H343.347C345.004 144.805 346.347 143.462 346.347 141.805V22.1094C346.347 20.4525 345.004 19.1094 343.347 19.1094Z" fill="#EEEEEE"/>
<path d="M340.734 34.875H155.695V137.369H340.734V34.875Z" fill="white"/>
<path d="M343.263 19H153C151.343 19 150 20.3431 150 22V27.338H346.263V22C346.263 20.3431 344.92 19 343.263 19Z" fill="#0070A7"/>
<path d="M156.196 24.8095C157.049 24.8095 157.741 24.1176 157.741 23.2641C157.741 22.4106 157.049 21.7188 156.196 21.7188C155.342 21.7188 154.65 22.4106 154.65 23.2641C154.65 24.1176 155.342 24.8095 156.196 24.8095Z" fill="white"/>
<path d="M162.063 24.8095C162.916 24.8095 163.608 24.1176 163.608 23.2641C163.608 22.4106 162.916 21.7188 162.063 21.7188C161.209 21.7188 160.518 22.4106 160.518 23.2641C160.518 24.1176 161.209 24.8095 162.063 24.8095Z" fill="white"/>
<path d="M167.928 24.8095C168.782 24.8095 169.474 24.1176 169.474 23.2641C169.474 22.4106 168.782 21.7188 167.928 21.7188C167.075 21.7188 166.383 22.4106 166.383 23.2641C166.383 24.1176 167.075 24.8095 167.928 24.8095Z" fill="white"/>
<path d="M266.31 43.3047H230.119V82.5686H266.31V43.3047Z" fill="#EEEEEE"/>
<path d="M215.771 89.8125H179.58V129.076H215.771V89.8125Z" fill="#EEEEEE"/>
<path d="M188.329 99.9033L194.941 97.2891L195.71 110.36C195.71 110.36 197.094 114.358 196.633 115.896C196.633 115.896 196.94 118.51 196.171 118.664C195.402 118.818 193.249 119.126 193.096 118.972C192.942 118.818 192.942 118.357 192.942 118.357C192.942 118.357 191.404 119.433 191.25 120.663C191.25 120.663 184.792 122.663 184.638 120.817C184.484 118.972 187.867 117.434 187.867 117.434L190.481 113.436L188.329 99.9033Z" fill="#007CBA"/>
<path d="M202.323 99.9033L208.935 97.2891L209.704 110.36C209.704 110.36 211.088 114.358 210.627 115.896C210.627 115.896 210.934 118.51 210.165 118.664C209.397 118.818 207.244 119.126 207.09 118.972C206.936 118.818 206.936 118.357 206.936 118.357C206.936 118.357 205.398 119.433 205.245 120.663C205.245 120.663 198.786 122.663 198.632 120.817C198.478 118.972 201.861 117.434 201.861 117.434L204.476 113.436L202.323 99.9033Z" fill="#007CBA"/>
<path d="M253.508 49.2908C253.508 49.2908 252.1 53.225 253.731 54.9992L252.371 59.6727C252.371 59.6727 257.203 74.1694 255.823 76.1943C255.823 76.1943 250.668 78.7715 240.359 75.2739L244.547 59.0284L243.949 52.1712L244.777 48.9497L246.618 48.7656C246.618 48.7656 245.514 52.9075 247.539 53.5518C249.564 54.1961 251.539 48.869 251.539 48.869L253.508 49.2908Z" fill="#007CBA"/>
<path d="M307.188 87.8019L283.463 105.039L302.164 130.778L325.889 113.541L307.188 87.8019Z" fill="#EEEEEE"/>
<path d="M304.981 120.838L306.492 120.468L306.743 109.123L314.721 116.43L315.732 115.372C311.107 107.435 306.236 99.4497 302.897 96.4256L298.447 99.3753L301.028 107.046L303.152 111.974L304.981 120.838Z" fill="#007CBA"/>
<path d="M266.416 89.8125H230.225V129.076H266.416V89.8125Z" fill="#EEEEEE"/>
<path d="M244.772 95.2227C244.772 95.2227 242.347 98.5939 242.465 99.9542C242.583 101.314 244.121 123.493 244.121 123.493L247.729 123.671L246.664 107.702L247.551 103.385L249.74 123.493L254.176 123.612L250.213 97.5293L249.444 95.2227L244.772 95.2227Z" fill="#91CAF2"/>
<path d="M215.83 43.2031H179.639V82.467H215.83V43.2031Z" fill="#EEEEEE"/>
<path d="M206.105 52.1707C205.574 51.5341 204.662 51.1899 203.786 51.0039C203.813 50.9243 201.123 50.3687 201.078 50.4832L200.064 49.6758L196.95 51.2929L195.2 50.1016L194.387 50.3901C194.42 50.2468 191.864 50.6895 191.864 50.6895C191.375 50.707 190.752 50.7376 190.053 50.7913C187.608 50.9794 187.42 57.3121 187.42 57.3121C188.545 56.8519 189.745 56.6007 190.96 56.571L191.621 75.1141C195.02 74.8225 198.585 75.1618 202.28 75.9919L204.013 59.0696L208.048 57.5002C208.048 57.5002 207.359 53.6755 206.105 52.1707Z" fill="#91CAF2"/>
<path d="M334.662 142.832C334.662 142.832 328.134 150.161 331.786 150.664C335.438 151.168 336.875 143.76 336.875 143.76L334.662 142.832Z" fill="#FBBEBE"/>
<path d="M343.18 108.14C342.361 108.356 341.624 108.809 341.061 109.442C340.498 110.075 340.135 110.861 340.017 111.7L337.94 126.48L335.029 138.269C335.029 138.269 333.574 139.579 334.156 140.307C334.738 141.035 333.428 144.091 333.428 144.091L337.067 145.255C337.067 145.255 337.504 142.199 338.232 142.053C338.871 141.925 346.031 122.8 347.756 118.167C347.994 117.528 348.129 117.164 348.129 117.164C348.129 117.164 347.838 107.413 343.18 108.14Z" fill="#044B7A"/>
<path d="M352.434 140.447L350.338 165.8C350.338 165.8 350.268 180.956 348.033 183.89C345.798 186.823 345.729 188.29 345.729 188.29L341.119 185.915C341.119 185.915 343.494 181.958 343.005 181.353C342.703 180.968 342.489 180.523 342.376 180.048L343.633 164.403L341.259 137.164L352.434 140.447Z" fill="#2C3338"/>
<path d="M334.693 140.515L333.576 163.843C333.576 163.843 343.773 184.936 344.89 185.494C345.223 185.666 345.519 185.903 345.759 186.191C345.998 186.479 346.178 186.812 346.287 187.171L352.434 185.634L349.64 181.164L343.494 166.217C343.494 166.217 342.516 165.798 342.236 164.402C341.957 163.005 341.398 163.005 342.795 162.725C344.192 162.446 344.192 161.049 344.192 161.049L348.802 139.816L334.693 140.515Z" fill="#2C3338"/>
<path d="M335.865 96.5838C336.402 93.545 339.301 91.517 342.34 92.0542C345.378 92.5913 347.406 95.4902 346.869 98.529C346.332 101.568 343.433 103.596 340.394 103.059C337.355 102.521 335.327 99.6226 335.865 96.5838Z" fill="#FBBEBE"/>
<path d="M344.681 98.6797C344.681 98.6797 345.1 105.804 345.659 106.502C346.218 107.201 339.792 107.061 339.792 107.061C339.792 107.061 340.211 101.054 339.792 100.496C339.373 99.9369 344.681 98.6797 344.681 98.6797Z" fill="#FBBEBE"/>
<path d="M334.275 142.052C334.275 142.052 350.059 140.655 352.992 142.052C352.992 142.052 351.913 138.047 352.192 137.628C352.394 137.322 351.835 125.914 352.01 119.333C352.11 115.619 352.967 111.993 350.476 109.236C349.628 108.299 348.683 107.513 347.685 107.129C347.685 107.129 347.964 104.475 346.567 104.336C346.567 104.336 341.258 103.776 339.303 105.453C338.678 105.986 338.285 107.609 338.244 109.007C339.211 113.764 338.868 119.043 337.981 124.519C337.927 124.867 337.867 125.216 337.807 125.566C336.865 130.996 335.441 136.596 334.275 142.052Z" fill="#007CBA"/>
<path d="M343.58 100.072C343.143 99.8893 342.654 99.888 342.191 99.7922C340.532 99.4493 339.285 97.7235 339.479 96.0411C339.524 95.8235 339.532 95.6002 339.505 95.3798C339.4 94.8964 338.871 94.6265 338.381 94.5582C337.891 94.49 337.382 94.5528 336.907 94.4144C336.173 94.2008 335.637 93.5161 335.466 92.7716C335.323 92.0151 335.423 91.2329 335.752 90.5367L335.971 91.0195C336.215 90.7717 336.384 90.4604 336.46 90.121C336.66 90.1362 336.852 90.2024 337.019 90.3133C337.186 90.4243 337.322 90.5763 337.414 90.7547C337.707 90.8934 337.685 90.2161 337.984 90.0888C338.117 90.0596 338.257 90.0808 338.376 90.1484C339.021 90.3807 339.718 90.0682 340.368 89.8476C341.492 89.4669 342.691 89.3561 343.867 89.5244C344.648 89.637 345.433 89.8855 346.032 90.3999C346.504 90.8467 346.884 91.3815 347.151 91.9742C347.872 93.3973 348.406 94.9596 348.356 96.5543C348.312 97.8595 347.883 99.1226 347.122 100.184C346.726 100.735 345.443 102.647 344.623 102.416C343.592 102.125 344.809 100.585 343.58 100.072Z" fill="#2C3338"/>
<path d="M326.073 118.789C326.073 118.789 323.45 109.332 321.048 112.128C318.646 114.925 324.094 120.146 324.094 120.146L326.073 118.789Z" fill="#FBBEBE"/>
<path d="M341.255 110.455L339.344 111.087C339.344 111.087 338.228 115.229 338.535 115.976C338.843 116.723 339.045 116.185 338.449 117.616C337.853 119.046 336.095 122.791 335.893 123.328C335.691 123.866 326.044 119.337 326.15 117.332C326.15 117.332 323.94 119.774 322.873 120.266C322.873 120.266 333.827 129.614 335.326 130.79C336.825 131.965 337.718 131.464 339.169 130.262C340.62 129.059 347.058 118.801 347.058 118.801L341.255 110.455Z" fill="#007CBA"/>
<path opacity="0.1" d="M342.327 127.347L347.658 119.077L345.816 118.888L342.276 126.287C342.296 126.639 342.312 126.993 342.327 127.347Z" fill="black"/>
<path d="M316.166 43.2031H279.975V82.467H316.166V43.2031Z" fill="#EEEEEE"/>
<path d="M308.227 56.5475C307.584 55.7748 306.477 55.3571 305.414 55.1314C305.446 55.0347 302.182 54.3605 302.127 54.4995L300.897 53.5195L297.117 55.4821L294.993 54.0363L294.007 54.3864C294.047 54.2125 290.944 54.7498 290.944 54.7498C290.351 54.7711 289.594 54.8082 288.747 54.8734C285.779 55.1017 285.551 62.7874 285.551 62.7874C286.916 62.2288 288.372 61.924 289.847 61.8879L290.649 71.0818C294.775 70.7279 299.102 71.1397 303.585 72.1472L305.689 64.9203L310.586 63.0156C310.586 63.0156 309.749 58.3738 308.227 56.5475Z" fill="#91CAF2"/>
</g>
<defs>
<clipPath id="clip0_521_72607">
<rect width="501" height="160" fill="white"/>
</clipPath>
</defs>
</svg>

<svg xmlns="http://www.w3.org/2000/svg" width="501" height="160" viewBox="0 0 501 160" fill="none"><g clip-path="url(#a)"><path fill="#BBE0FA" d="M0 0h501v160H0z"/><path fill="#fff" fill-opacity=".65" d="M84.346 106.432c4.52-8.16 13.043-13.908 21.573-18.662l1.439-.792c8.94-4.88 18.235-9.097 27.675-13.012 5.049-2.1 10.126-4.121 15.21-6.122l3.986-1.565c5.175-2.031 10.361-4.064 15.558-6.097 5.088-1.99 10.179-3.97 15.274-5.941a2409.04 2409.04 0 0 1 19.611-7.475 1561.5 1561.5 0 0 1 15.367-5.682c6.574-2.391 13.167-4.727 19.776-7.01 5.167-1.78 10.345-3.519 15.533-5.216a829.48 829.48 0 0 1 20.044-6.259 679.632 679.632 0 0 1 13.696-3.942l2.088-.573c19.681-5.368 40.122-9.694 59.853-7.36l.533.066c.264.032.529.064.796.102a63.676 63.676 0 0 1 10.772 2.344c6.296 1.986 12.024 5.109 16.126 9.774 6.431 7.318 8.058 17.542 7.16 27.26-.897 9.718-4.024 19.318-6.251 28.962a108.333 108.333 0 0 0-1.625 8.62c-2.648 18.24-.343 37.433 13.445 49.181a69.785 69.785 0 0 0 5.585 4.166c3.101 2.134 10.431 5.8 14.931 11.3 5.458 6.671 5.39 10.655 7 19 2.128 11.098-.105 23.267-7.068 33.159-7.221 10.269-21.051 14.813-33.911 16.633-19.986 2.855-40.015 1.052-59.93.086-19.914-.966-40.436-1.025-59.775 5.08a87.182 87.182 0 0 0-12.116 4.856 78.607 78.607 0 0 0-14.727 9.288c-6.575 5.308-12.001 11.699-15.109 19.001-6.68 15.621-26.788 23.795-44.045 21.956-16.467-1.755-30.663-12.836-35.095-27.381-4.917-16.197 1.642-33.294 7.142-50.393a270.45 270.45 0 0 0 1.93-6.217c.342-1.157.67-2.312.986-3.463.548-2.03 1.056-4.055 1.494-6.078 2.229-10.365 2.308-21.888-4.58-29.762-3.861-4.408-9.132-6.941-15.021-8.694-13.194-3.923-29.474-3.924-39.794-12.324-8.894-7.24-11.267-20.448-5.536-30.814Z" opacity=".5"/><path fill="#EEE" d="M343.347 19.11H153.084a3 3 0 0 0-3 3v119.695a3 3 0 0 0 3 3h190.263a3 3 0 0 0 3-3V22.109a3 3 0 0 0-3-3Z"/><path fill="#fff" d="M340.734 34.875H155.695v102.494h185.039V34.875Z"/><path fill="#0070A7" d="M343.263 19H153a3 3 0 0 0-3 3v5.338h196.263V22a3 3 0 0 0-3-3Z"/><path fill="#fff" d="M156.196 24.81a1.545 1.545 0 1 0 0-3.091 1.545 1.545 0 0 0 0 3.09ZM162.063 24.81a1.545 1.545 0 1 0 0-3.091 1.545 1.545 0 0 0 0 3.09ZM167.928 24.81a1.546 1.546 0 1 0 0-3.092 1.546 1.546 0 0 0 0 3.091Z"/><path fill="#EEE" d="M266.31 43.305h-36.191v39.264h36.191V43.305ZM215.771 89.813H179.58v39.263h36.191V89.813Z"/><path fill="#007CBA" d="m188.329 99.903 6.612-2.614.769 13.071s1.384 3.998.923 5.536c0 0 .307 2.614-.462 2.768-.769.154-2.922.462-3.075.308-.154-.154-.154-.615-.154-.615s-1.538 1.076-1.692 2.306c0 0-6.458 2-6.612.154-.154-1.845 3.229-3.383 3.229-3.383l2.614-3.998-2.152-13.533ZM202.323 99.903l6.612-2.614.769 13.071s1.384 3.998.923 5.536c0 0 .307 2.614-.462 2.768-.768.154-2.921.462-3.075.308-.154-.154-.154-.615-.154-.615s-1.538 1.076-1.691 2.306c0 0-6.459 2-6.613.154-.154-1.845 3.229-3.383 3.229-3.383l2.615-3.998-2.153-13.533ZM253.508 49.29s-1.408 3.935.223 5.71l-1.36 4.673s4.832 14.496 3.452 16.521c0 0-5.155 2.578-15.464-.92l4.188-16.246-.598-6.857.828-3.221 1.841-.184s-1.104 4.142.921 4.786c2.025.644 4-4.683 4-4.683l1.969.422Z"/><path fill="#EEE" d="m307.188 87.802-23.725 17.237 18.701 25.739 23.725-17.237-18.701-25.74Z"/><path fill="#007CBA" d="m304.981 120.838 1.511-.37.251-11.345 7.978 7.307 1.011-1.058c-4.625-7.937-9.496-15.922-12.835-18.946l-4.45 2.95 2.581 7.67 2.124 4.928 1.829 8.864Z"/><path fill="#EEE" d="M266.416 89.813h-36.191v39.263h36.191V89.813Z"/><path fill="#91CAF2" d="M244.772 95.223s-2.425 3.37-2.307 4.731c.118 1.36 1.656 23.539 1.656 23.539l3.608.178-1.065-15.969.887-4.317 2.189 20.108 4.436.119-3.963-26.083-.769-2.306h-4.672Z"/><path fill="#EEE" d="M215.83 43.203h-36.191v39.264h36.191V43.203Z"/><path fill="#91CAF2" d="M206.105 52.17c-.531-.636-1.443-.98-2.319-1.166.027-.08-2.663-.635-2.708-.52l-1.014-.808-3.114 1.617-1.75-1.191-.813.288c.033-.143-2.523.3-2.523.3-.489.017-1.112.048-1.811.101-2.445.188-2.633 6.521-2.633 6.521a9.997 9.997 0 0 1 3.54-.741l.661 18.543c3.399-.291 6.964.048 10.659.878l1.733-16.922 4.035-1.57s-.689-3.825-1.943-5.33Z"/><path fill="#FBBEBE" d="M334.662 142.832s-6.528 7.329-2.876 7.832c3.652.504 5.089-6.904 5.089-6.904l-2.213-.928Z"/><path fill="#044B7A" d="M343.18 108.14a4.305 4.305 0 0 0-3.163 3.56l-2.077 14.78-2.911 11.789s-1.455 1.31-.873 2.038c.582.728-.728 3.784-.728 3.784l3.639 1.164s.437-3.056 1.165-3.202c.639-.128 7.799-19.253 9.524-23.886l.373-1.003s-.291-9.751-4.949-9.024Z"/><path fill="#2C3338" d="m352.434 140.447-2.096 25.353s-.07 15.156-2.305 18.09c-2.235 2.933-2.304 4.4-2.304 4.4l-4.61-2.375s2.375-3.957 1.886-4.562a3.381 3.381 0 0 1-.629-1.305l1.257-15.645-2.374-27.239 11.175 3.283Z"/><path fill="#2C3338" d="m334.693 140.515-1.117 23.328s10.197 21.093 11.314 21.651a2.81 2.81 0 0 1 1.397 1.677l6.147-1.537-2.794-4.47-6.146-14.947s-.978-.419-1.258-1.815c-.279-1.397-.838-1.397.559-1.677 1.397-.279 1.397-1.676 1.397-1.676l4.61-21.233-14.109.699Z"/><path fill="#FBBEBE" d="M335.865 96.584a5.587 5.587 0 1 1 11.004 1.945 5.587 5.587 0 0 1-11.004-1.945Z"/><path fill="#FBBEBE" d="M344.681 98.68s.419 7.124.978 7.822c.559.699-5.867.559-5.867.559s.419-6.007 0-6.565c-.419-.56 4.889-1.816 4.889-1.816Z"/><path fill="#007CBA" d="M334.275 142.052s15.784-1.397 18.717 0c0 0-1.079-4.005-.8-4.424.202-.306-.357-11.714-.182-18.295.1-3.714.957-7.34-1.534-10.097-.848-.937-1.793-1.723-2.791-2.107 0 0 .279-2.654-1.118-2.793 0 0-5.309-.56-7.264 1.117-.625.533-1.018 2.156-1.059 3.554.967 4.757.624 10.036-.263 15.512-.054.348-.114.697-.174 1.047-.942 5.43-2.366 11.03-3.532 16.486Z"/><path fill="#2C3338" d="M343.58 100.072c-.437-.183-.926-.184-1.389-.28-1.659-.343-2.906-2.069-2.712-3.75a2.04 2.04 0 0 0 .026-.662c-.105-.484-.634-.754-1.124-.822-.49-.068-.999-.005-1.474-.144-.734-.213-1.27-.898-1.441-1.642a3.645 3.645 0 0 1 .286-2.235l.219.482c.244-.247.413-.559.489-.898a1.17 1.17 0 0 1 .954.634c.293.138.271-.539.57-.666a.554.554 0 0 1 .392.06c.645.232 1.342-.08 1.992-.301a7.567 7.567 0 0 1 3.499-.324c.781.113 1.566.361 2.165.876a4.99 4.99 0 0 1 1.119 1.574c.721 1.423 1.255 2.986 1.205 4.58a6.611 6.611 0 0 1-1.234 3.63c-.396.551-1.679 2.463-2.499 2.232-1.031-.291.186-1.831-1.043-2.344Z"/><path fill="#FBBEBE" d="M326.073 118.789s-2.623-9.457-5.025-6.661c-2.402 2.797 3.046 8.018 3.046 8.018l1.979-1.357Z"/><path fill="#007CBA" d="m341.255 110.455-1.911.632s-1.116 4.142-.809 4.889c.308.747.51.209-.086 1.64-.596 1.43-2.354 5.175-2.556 5.712-.202.538-9.849-3.991-9.743-5.996 0 0-2.21 2.442-3.277 2.934 0 0 10.954 9.348 12.453 10.524 1.499 1.175 2.392.674 3.843-.528 1.451-1.203 7.889-11.461 7.889-11.461l-5.803-8.346Z"/><path fill="#000" d="m342.327 127.347 5.331-8.27-1.842-.189-3.54 7.399c.02.352.036.706.051 1.06Z" opacity=".1"/><path fill="#EEE" d="M316.166 43.203h-36.191v39.264h36.191V43.203Z"/><path fill="#91CAF2" d="M308.227 56.547c-.643-.772-1.75-1.19-2.813-1.416.032-.096-3.232-.77-3.287-.632l-1.23-.98-3.78 1.963-2.124-1.446-.986.35c.04-.174-3.063.364-3.063.364-.593.021-1.35.058-2.197.123-2.968.229-3.196 7.914-3.196 7.914a12.127 12.127 0 0 1 4.296-.9l.802 9.195c4.126-.354 8.453.058 12.936 1.065l2.104-7.227 4.897-1.904s-.837-4.642-2.359-6.468Z"/></g><defs><clipPath id="a"><path fill="#fff" d="M0 0h501v160H0z"/></clipPath></defs></svg>
